X: 1430
T: Flotsam and Jetsam
C:Bentleigh Collingwood Hilliam (1890-1968) & Malcolm McEachern (1883-1945)
B: australian traditional tunes wiki
M:4/4
L:1/8
R: Foxtrot
Q: 1/4=100
K:C
V:1 
"C" GG/2G/2 cA "G7"BG/2G/2 GD| "Am" EE/2E <AG/2 "C"GD EC| CC/2C/2 "F"FF "C"E/2E/2E/2E/2 DC| "G7" G,G,/2G,/2 A,B, "C"DC C/2D/2E/2F/2|
"C" GG/2G/2 cA "G7"BG/2G/2 GD| "Am" EE/2E <AG/2 "C"GD EC|E/2G/2c BA "G7"D/2G/2B AG| "D7" DD E^F "G7"GB A^G|
"C" =GA/2G/2 EG AG AG|GA/2G/2 EG cB "G7"=F2|  FG/2F/2 DF GF GF|B3/2A/2 GF EE/2F/2 "C"E/2D/2C|
"C" GA/2G/2 EG AG AG|C3/2E/2 Gc "F"dd/2e/2 dc|dc BA "C"cc/2B/2 AE| "G7" D3/2E/2 FG A/2A/2B "C"c2|
% abcbook-tune_id 6342d53aa89970bc0ef56c3a


% abcbook-boost 0
% abcbook-tablature 
% abcbook-transpose 
% abcbook-lastupdated 1665324364747
% abcbook-soundfonts 
% abcbook-repeats 1
% NFF Book 2017

